Sources/FrostedUI/Resources/Icons.xcassets/bulb32.imageset/bulb-32.svg

<svg width="32" height="32" viewBox="0 0 32 32" fill="none" xmlns="http://www.w3.org/2000/svg" data-fui-icon="true">
  <path
    d="M20.7998 29.6504C21.2139 29.6506 21.5498 29.9863 21.5498 30.4004C21.5496 30.8143 21.2137 31.1502 20.7998 31.1504H11.2002C10.7861 31.1503 10.4504 30.8144 10.4502 30.4004C10.4502 29.9862 10.786 29.6504 11.2002 29.6504H20.7998ZM16 0.450195C19.6772 0.450279 22.7083 1.71445 24.8213 3.81836C26.9317 5.91993 28.0839 8.8167 28.084 12C28.0839 16.0719 25.5456 18.9683 23.7266 20.5264C22.7365 21.3744 22.084 22.5153 22.084 23.6875V24.334C22.0837 25.8523 20.8522 27.0836 19.334 27.084H12.667C11.1484 27.084 9.91732 25.8525 9.91699 24.334V23.6875C9.91699 22.5154 9.2642 21.3743 8.27441 20.5264C6.4554 18.9683 3.91704 16.072 3.91699 12C3.91703 8.81658 5.06911 5.91995 7.17969 3.81836C9.29265 1.71462 12.3229 0.450262 16 0.450195ZM16 1.9502C12.6777 1.95026 10.0418 3.0861 8.23828 4.88184C6.43228 6.68016 5.41703 9.18355 5.41699 12C5.41704 15.4184 7.55492 17.9348 9.25 19.3867C10.4664 20.4287 11.417 21.9545 11.417 23.6875V24.334C11.4173 25.0241 11.9768 25.584 12.667 25.584H19.334C20.0238 25.5836 20.5837 25.0238 20.584 24.334V23.6875C20.584 21.9544 21.5345 20.4287 22.751 19.3867C24.446 17.9347 26.5839 15.4182 26.584 12C26.5839 9.18371 25.5685 6.68014 23.7627 4.88184C21.9591 3.08597 19.3224 1.95028 16 1.9502ZM19.25 13C19.664 13.0002 19.9999 13.336 20 13.75C19.9999 14.164 19.664 14.4998 19.25 14.5H16.75V20.25C16.7499 20.664 16.414 20.9998 16 21C15.586 20.9998 15.2501 20.6641 15.25 20.25V14.5H12.75C12.336 14.4998 12.0001 14.164 12 13.75C12.0001 13.336 12.336 13.0002 12.75 13H19.25Z"
    fill="currentColor"
  />
</svg>

<svg xmlns="http://www.w3.org/2000/svg" width="32" height="32" fill="none" data-fui-icon="true" viewBox="0 0 32 32"><path fill="currentColor" d="M20.8 29.65a.75.75 0 0 1 0 1.5h-9.6a.75.75 0 0 1 0-1.5zM16 .45c3.677 0 6.708 1.264 8.821 3.368 2.11 2.102 3.263 4.999 3.263 8.182 0 4.072-2.538 6.968-4.357 8.526-.99.848-1.643 1.99-1.643 3.162v.646a2.75 2.75 0 0 1-2.75 2.75h-6.667a2.75 2.75 0 0 1-2.75-2.75v-.646c0-1.173-.653-2.314-1.643-3.162C6.455 18.968 3.917 16.072 3.917 12c0-3.183 1.152-6.08 3.263-8.182C9.293 1.715 12.323.45 16 .45m0 1.5c-3.322 0-5.958 1.136-7.762 2.932C6.432 6.68 5.417 9.184 5.417 12c0 3.418 2.138 5.935 3.833 7.387 1.216 1.042 2.167 2.567 2.167 4.3v.647c0 .69.56 1.25 1.25 1.25h6.667c.69 0 1.25-.56 1.25-1.25v-.646c0-1.734.95-3.26 2.167-4.301 1.695-1.452 3.833-3.969 3.833-7.387 0-2.816-1.015-5.32-2.821-7.118C21.959 3.086 19.323 1.95 16 1.95M19.25 13a.75.75 0 0 1 0 1.5h-2.5v5.75a.75.75 0 0 1-1.5 0V14.5h-2.5a.75.75 0 0 1 0-1.5z"/></svg>
